X:87
T:Flowers of Doocastle* (reel) 
B:CRE2.142 (gan ainm)
F:file ID: cre.2/087flow_d
Q:180
L:1/8
M:4/4
R:reel
K:G
D3G B2Ac|BG {AGF}G2 AEGE|D3G BABc|dBAG EAGE|
D3G B2Ac|BG {AGF}G2 AEGE|DEGA BABc|dBAG EG G2||
Bddg ed g2|BddB AGEG|Bddg edgd|(3BcB Ac BGG2|
Bddg edgd|BddB AGE2|Bddg egdg|(3BcB Ac BGGE|]

%%%

